rospo-icon-theme-classic-common/32x32/places/folder-magenta-gnome.svg

<svg height="32" width="32" xmlns="http://www.w3.org/2000/svg"><rect height="16" opacity=".2" rx="1.25" width="25" x="3" y="12"/><path d="m3 21.75c0 .692.5575 1.25 1.25 1.25h22.5c.692 0 1.25-.558 1.25-1.25v-13.5c0-.6925-.558-1.25-1.25-1.25h-12.75v-.75c0-.6925-.557-1.25-1.25-1.25h-8.5c-.6925 0-1.25.5575-1.25 1.25" fill="#b259b8"/><rect height="16" opacity=".2" rx="1.25" width="25" x="3" y="10"/><rect fill="#e4e4e4" height="10" rx="1.25" width="21" x="5" y="9"/><rect fill="#ca71df" height="16" rx="1.25" width="25" x="3" y="11"/><path d="m4.25 5c-.6925 0-1.25.5575-1.25 1.25v1c0-.6925.5575-1.25 1.25-1.25h8.5c.693 0 1.25.5575 1.25 1.25v.75h12.75c.692 0 1.25.5575 1.25 1.25v-1c0-.6925-.558-1.25-1.25-1.25h-12.75v-.75c0-.6925-.557-1.25-1.25-1.25z" fill="#fff" opacity=".1"/><path d="m19.952 12c-2.539 0-3.015 3.858-1.586 3.858 1.428 0 4.126-3.858 1.586-3.858zm-3.911.594c-.04-.001-.083.003-.128.008-1.44.182-.933 2.617-.167 2.662.741.045 1.553-2.666.294-2.67zm-2.495.899c-.088-.006-.185.011-.294.055-1.156.475-.175 2.436.472 2.304.588-.12.672-2.304-.178-2.359zm-1.887 1.602c-.101-.002-.209.032-.325.119-.926.691.311 2.36.856 2.101.476-.227.172-2.194-.532-2.219zm5.467 1.594c-2.006-.035-4.652.983-5.103 3.029-.489 2.212 2.012 5.282 4.62 5.282 1.284 0 2.764-1.173 3.041-2.658.212-1.133-2.489-.679-2.392.07.116.899-.651 1.343-1.403.764-2.394-1.844 3.963-2.764 3.543-5.283-.13-.784-1.103-1.183-2.306-1.204z" fill="#47274e"/></svg>

<svg xmlns="http://www.w3.org/2000/svg" width="32" height="32" version="1">
 <rect style="opacity:0.2" width="25" height="16" x="3" y="12" rx="1.25" ry="1.25"/>
 <path style="fill:#b259b8" d="M 3,21.75 C 3,22.442 3.5575,23 4.25,23 H 26.75 C 27.442,23 28,22.442 28,21.75 V 8.25 C 28,7.5575 27.442,7 26.75,7 H 14 V 6.25 C 14,5.5575 13.443,5 12.75,5 H 4.25 C 3.5575,5 3,5.5575 3,6.25"/>
 <rect style="opacity:0.2" width="25" height="16" x="3" y="10" rx="1.25" ry="1.25"/>
 <rect style="fill:#dcdcdc" width="21" height="10" x="5" y="9" rx="1.25" ry="1.25"/>
 <rect style="fill:#ca71df" width="25" height="16" x="3" y="11" rx="1.25" ry="1.25"/>
 <path style="opacity:0.1;fill:#ffffff" d="M 4.25 5 C 3.5575 5 3 5.5575 3 6.25 L 3 7.25 C 3 6.5575 3.5575 6 4.25 6 L 12.75 6 C 13.443 6 14 6.5575 14 7.25 L 14 8 L 26.75 8 C 27.442 8 28 8.5575 28 9.25 L 28 8.25 C 28 7.5575 27.442 7 26.75 7 L 14 7 L 14 6.25 C 14 5.5575 13.443 5 12.75 5 L 4.25 5 z"/>
 <path style="fill:#47274e" d="M 19.952,12 C 17.413,12 16.937,15.858 18.366,15.858 19.794,15.858 22.492,12 19.952,12 Z M 16.041,12.594 C 16.001,12.593 15.958,12.597 15.913,12.602 14.473,12.784 14.98,15.219 15.746,15.264 16.487,15.309 17.299,12.598 16.04,12.594 Z M 13.546,13.493 C 13.458,13.487 13.361,13.504 13.252,13.548 12.096,14.023 13.077,15.984 13.724,15.852 14.312,15.732 14.396,13.548 13.546,13.493 Z M 11.659,15.095 C 11.558,15.093 11.45,15.127 11.334,15.214 10.408,15.905 11.645,17.574 12.19,17.315 12.666,17.088 12.362,15.121 11.658,15.096 Z M 17.126,16.689 C 15.12,16.654 12.474,17.672 12.023,19.718 11.534,21.93 14.035,25 16.643,25 17.927,25 19.407,23.827 19.684,22.342 19.896,21.209 17.195,21.663 17.292,22.412 17.408,23.311 16.641,23.755 15.889,23.176 13.495,21.332 19.852,20.412 19.432,17.893 19.302,17.109 18.329,16.71 17.126,16.689 Z"/>
</svg>
